X:1
T:Carrow, 84.84.84
T:Carrow, 84.84.84
T:Arthur Seymour Sullivan, 1873
T:Public Domain Courtesy of the Cyber Hymnal™
C:Arthur Seymour Sullivan, 1873
Z:Public Domain
Z:Courtesy of the Cyber Hymnal™
%%score ( 1 2 ) ( 3 4 )
L:1/8
Q:1/4=108
M:3/4
K:Eb
V:1 treble 
V:2 treble 
V:3 bass 
V:4 bass 
V:1
 [EG]2 | [EG]4 [EG]2 | [EG]2 [DF]2 EE | [DA]3 [EG] [B,F][=A,E] | [B,D]4 [DB]2 | [EB]4 [DB]2 | %6
 [EB][Ee] [Ee]2 [Fd]2 | [=Ac]3 [A=B] [Ac][Ad] | B4 [DB]2 | [Ec]3 [EB] [=EA][EG] | [FB]3 [CA] (GF) | %11
 [B,E]2 [EG]2 [DF]2 | E4 |] %13
V:2
 x2 | x6 | x4 EE | x6 | x6 | x6 | x6 | x6 | B4 x2 | x6 | x4 C2 | x6 | E4 |] %13
V:3
 [E,B,]2 | [E,B,]4 [G,B,]2 | B,2 [A,B,]2 [G,B,][G,B,] | [F,B,]3 [E,B,] [D,B,][C,F,] | %4
 [B,,F,]4 [B,,A,]2 | [E,G,]4 [F,A,]2 | [G,B,][G,B,] [G,B,]2 [D,B,]2 | [F,E]3 [F,E] [F,E][F,E] | %8
 [B,D]4 [A,B,]2 | [G,B,]3 [G,B,] [C,C][C,C] | [F,C]3 [F,C] (B,A,) | [B,,G,]2 [B,,B,]2 [B,,A,]2 | %12
 [E,G,]4 |] %13
V:4
 x2 | x6 | B,2 x4 | x6 | x6 | x6 | x6 | x6 | x6 | x6 | x4 A,,2 | x6 | x4 |] %13

